www/assets/icons/edit_road.svg

<svg width="24" height="24" viewBox="0 0 24 24" xmlns="http://www.w3.org/2000/svg" fill='currentColor'><path d="M16.4988 4H14.4988V11.9L16.4988 9.9V4Z"/><path d="M4.49878 4H2.49878V20H4.49878V4Z"/><path d="M10.4988 4H8.49878V8H10.4988V4Z"/><path d="M10.4988 10H8.49878V14H10.4988V10Z"/><path d="M10.4988 16H8.49878V20H10.4988V16Z"/><path d="M21.0588 12.59L19.9088 11.44C19.3188 10.85 18.3688 10.85 17.7888 11.44L12.4988 16.73V20H15.7688L21.0588 14.71C21.6488 14.12 21.6488 13.17 21.0588 12.59ZM15.0788 18.45H14.0488V17.42L17.4988 13.97L18.5288 15L15.0788 18.45Z"/></svg>

<svg xmlns="http://www.w3.org/2000/svg" width="24" height="24" viewBox="0 0 24 24" fill='currentColor'><path d="M16.499 4h-2v7.9l2-2zm-12 0h-2v16h2zm6 0h-2v4h2zm0 6h-2v4h2zm0 6h-2v4h2zm10.56-3.41-1.15-1.15a1.49 1.49 0 0 0-2.12 0l-5.29 5.29V20h3.27l5.29-5.29c.59-.59.59-1.54 0-2.12m-5.98 5.86h-1.03v-1.03l3.45-3.45 1.03 1.03z"/></svg>
